svg/emoji_u1f68d.svg

<?xml version="1.0" encoding="UTF-8"?>
<svg enable-background="new 0 0 128 128" version="1.1" viewBox="0 0 128 128" xmlns="http://www.w3.org/2000/svg"><path d="m31.04 123.94c-3.37 0-6.13-2.76-6.13-6.13v-6.98c0-3.37 2.76-6.13 6.13-6.13s6.13 2.76 6.13 6.13v6.98c-0.01 3.37-2.77 6.13-6.13 6.13z" fill="#3E2723"/><path d="m96.96 123.94c-3.37 0-6.13-2.76-6.13-6.13v-6.98c0-3.37 2.76-6.13 6.13-6.13s6.13 2.76 6.13 6.13v6.98c0 3.37-2.76 6.13-6.13 6.13z" fill="#3E2723"/><g opacity=".2"><path d="m31.04 106.7c2.27 0 4.13 1.85 4.13 4.13v6.98c0 2.27-1.85 4.13-4.13 4.13-2.27 0-4.13-1.85-4.13-4.13v-6.98c0-2.27 1.85-4.13 4.13-4.13m0-2c-3.37 0-6.13 2.76-6.13 6.13v6.98c0 3.37 2.76 6.13 6.13 6.13s6.13-2.76 6.13-6.13v-6.98c-0.01-3.37-2.77-6.13-6.13-6.13z" fill="#BBDEFB"/></g><g opacity=".2"><path d="m96.96 106.7c2.27 0 4.13 1.85 4.13 4.13v6.98c0 2.27-1.85 4.13-4.13 4.13s-4.13-1.85-4.13-4.13v-6.98c0.01-2.27 1.86-4.13 4.13-4.13m0-2c-3.37 0-6.13 2.76-6.13 6.13v6.98c0 3.37 2.76 6.13 6.13 6.13s6.13-2.76 6.13-6.13v-6.98c0-3.37-2.76-6.13-6.13-6.13z" fill="#BBDEFB"/></g><linearGradient id="a" x1="64" x2="64" y1="31" y2="108.33" gradientUnits="userSpaceOnUse"><stop stop-color="#eee" offset=".0571"/><stop stop-color="#EAEAEA" offset=".337"/><stop stop-color="#DFDFDF" offset=".5964"/><stop stop-color="#ccc" offset=".8469"/><stop stop-color="#BDBDBD" offset="1"/></linearGradient><path d="m108.05 111.97h-88.1v-75.04c0-4.95 4.05-9 9-9h70.11c4.95 0 9 4.05 9 9v75.04z" fill="url(#a)"/><g opacity=".2"><path d="m99.11 30.93c3.31 0 6 2.69 6 6v72.04h-82.11v-72.04c0-3.31 2.69-6 6-6h70.11m0-3h-70.11c-4.95 0-9 4.05-9 9v75.04h88.11v-75.04c0-4.95-4.05-9-9-9z" fill="#424242"/></g><rect x="15.66" y="50.22" width="4.41" height="9" fill="#828282"/><rect x="108.11" y="50.22" width="3.32" height="10.36" fill="#828282"/><path d="m93.51 85.32h-58.74c-3.63 0-6.61-2.97-6.61-6.61v-31.28c0-3.63 2.97-6.61 6.61-6.61h58.73c3.63 0 6.61 2.97 6.61 6.61v31.28c0.01 3.64-2.97 6.61-6.6 6.61z" fill="#64B5F6"/><g opacity=".2"><path d="m93.51 43.82c1.99 0 3.61 1.62 3.61 3.61v31.28c0 1.99-1.62 3.61-3.61 3.61h-58.74c-1.99 0-3.61-1.62-3.61-3.61v-31.28c0-1.99 1.62-3.61 3.61-3.61h58.74m0-3h-58.74c-3.63 0-6.61 2.97-6.61 6.61v31.28c0 3.63 2.97 6.61 6.61 6.61h58.73c3.63 0 6.61-2.97 6.61-6.61v-31.28c0.01-3.63-2.97-6.61-6.6-6.61z" fill="#424242"/></g><path d="m107 115.97h-86.13c-1.66 0-3-1.34-3-3v-2c0-1.66 1.34-3 3-3h86.13c1.66 0 3 1.34 3 3v2c0 1.66-1.34 3-3 3z" fill="#546E7A"/><path d="m78.38 36.03h-28.76c-2.09 0-3.8-1.71-3.8-3.8v-8.48c0-2.09 1.71-3.8 3.8-3.8h28.77c2.09 0 3.8 1.71 3.8 3.8v8.48c-0.01 2.09-1.72 3.8-3.81 3.8z" fill="#455A64"/><path d="m73.2 32.31h-18.4c-1.52 0-2.76-1.24-2.76-2.76v-3.22c0-1.52 1.24-2.76 2.76-2.76h18.4c1.52 0 2.76 1.24 2.76 2.76v3.22c0 1.52-1.25 2.76-2.76 2.76z" fill="#78909C"/><path d="m80.58 101.93h-33.16c-0.88 0-1.6-0.72-1.6-1.6v-2.78c0-0.88 0.72-1.6 1.6-1.6h33.16c0.88 0 1.6 0.72 1.6 1.6v2.78c0 0.88-0.72 1.6-1.6 1.6z" fill="#78909C"/><path d="m41.19 96.98h-14.38c-1.04 0-1.9-0.85-1.9-1.9v-4.24c0-1.04 0.85-1.9 1.9-1.9h14.38c1.04 0 1.9 0.85 1.9 1.9v4.24c0 1.05-0.85 1.9-1.9 1.9z" fill="#FFEB3B"/><path d="m101.19 96.98h-14.38c-1.04 0-1.9-0.85-1.9-1.9v-4.24c0-1.04 0.85-1.9 1.9-1.9h14.38c1.04 0 1.9 0.85 1.9 1.9v4.24c0 1.05-0.85 1.9-1.9 1.9z" fill="#FFEB3B"/><path d="m12.21 60.72v-12.33c0-0.9 0.73-1.63 1.63-1.63h3.64c0.9 0 1.63 0.73 1.63 1.63v12.34c0 0.9-0.73 1.63-1.63 1.63h-3.64c-0.89-0.01-1.63-0.74-1.63-1.64z" fill="#424242"/><path d="m109.2 60.72v-12.33c0-0.9 0.73-1.63 1.63-1.63h3.64c0.9 0 1.63 0.73 1.63 1.63v12.34c0 0.9-0.73 1.63-1.63 1.63h-3.64c-0.9-0.01-1.63-0.74-1.63-1.64z" fill="#424242"/><g opacity=".3"><path d="m41.09 90.94v4.04h-14.18v-4.04h14.18m0.1-2h-14.38c-1.04 0-1.9 0.85-1.9 1.9v4.24c0 1.04 0.85 1.9 1.9 1.9h14.38c1.04 0 1.9-0.85 1.9-1.9v-4.24c0-1.04-0.85-1.9-1.9-1.9z" fill="#F57F17"/></g><g opacity=".3"><path d="m101.09 90.94v4.04h-14.18v-4.04h14.18m0.1-2h-14.38c-1.04 0-1.9 0.85-1.9 1.9v4.24c0 1.04 0.85 1.9 1.9 1.9h14.38c1.04 0 1.9-0.85 1.9-1.9v-4.24c0-1.04-0.85-1.9-1.9-1.9z" fill="#F57F17"/></g><g opacity=".2"><path d="m107 109.97c0.55 0 1 0.45 1 1v2c0 0.55-0.45 1-1 1h-86.13c-0.55 0-1-0.45-1-1v-2c0-0.55 0.45-1 1-1h86.13m0-2h-86.13c-1.66 0-3 1.34-3 3v2c0 1.66 1.34 3 3 3h86.13c1.66 0 3-1.34 3-3v-2c0-1.66-1.34-3-3-3z" fill="#424242"/></g></svg>

<?xml version="1.0" encoding="utf-8"?>
<!-- Generator: Adobe Illustrator 19.2.1, SVG Export Plug-In . SVG Version: 6.00 Build 0)  -->
<svg version="1.1" xmlns="http://www.w3.org/2000/svg" xmlns:xlink="http://www.w3.org/1999/xlink" x="0px" y="0px"
	 viewBox="0 0 128 128" style="enable-background:new 0 0 128 128;" xml:space="preserve">
<g id="Layer_1">
	<path style="fill:#3E2723;" d="M31.04,123.94L31.04,123.94c-3.37,0-6.13-2.76-6.13-6.13v-6.98c0-3.37,2.76-6.13,6.13-6.13h0
		c3.37,0,6.13,2.76,6.13,6.13v6.98C37.16,121.18,34.4,123.94,31.04,123.94z"/>
	<path style="fill:#3E2723;" d="M96.96,123.94L96.96,123.94c-3.37,0-6.13-2.76-6.13-6.13v-6.98c0-3.37,2.76-6.13,6.13-6.13h0
		c3.37,0,6.13,2.76,6.13,6.13v6.98C103.09,121.18,100.33,123.94,96.96,123.94z"/>
	<g style="opacity:0.2;">
		<path style="fill:#BBDEFB;" d="M31.04,106.7c2.27,0,4.13,1.85,4.13,4.13v6.98c0,2.27-1.85,4.13-4.13,4.13
			c-2.27,0-4.13-1.85-4.13-4.13v-6.98C26.91,108.56,28.76,106.7,31.04,106.7 M31.04,104.7L31.04,104.7c-3.37,0-6.13,2.76-6.13,6.13
			v6.98c0,3.37,2.76,6.13,6.13,6.13h0c3.37,0,6.13-2.76,6.13-6.13v-6.98C37.16,107.46,34.4,104.7,31.04,104.7L31.04,104.7z"/>
	</g>
	<g style="opacity:0.2;">
		<path style="fill:#BBDEFB;" d="M96.96,106.7c2.27,0,4.13,1.85,4.13,4.13v6.98c0,2.27-1.85,4.13-4.13,4.13s-4.13-1.85-4.13-4.13
			v-6.98C92.84,108.56,94.69,106.7,96.96,106.7 M96.96,104.7c-3.37,0-6.13,2.76-6.13,6.13v6.98c0,3.37,2.76,6.13,6.13,6.13
			s6.13-2.76,6.13-6.13v-6.98C103.09,107.46,100.33,104.7,96.96,104.7L96.96,104.7z"/>
	</g>
	<linearGradient id="SVGID_1_" gradientUnits="userSpaceOnUse" x1="64" y1="31" x2="64" y2="108.3341">
		<stop  offset="0.0571" style="stop-color:#EEEEEE"/>
		<stop  offset="0.337" style="stop-color:#EAEAEA"/>
		<stop  offset="0.5964" style="stop-color:#DFDFDF"/>
		<stop  offset="0.8469" style="stop-color:#CCCCCC"/>
		<stop  offset="1" style="stop-color:#BDBDBD"/>
	</linearGradient>
	<path style="fill:url(#SVGID_1_);" d="M108.05,111.97H19.95V36.93c0-4.95,4.05-9,9-9h70.11c4.95,0,9,4.05,9,9V111.97z"/>
	<g style="opacity:0.2;">
		<path style="fill:#424242;" d="M99.11,30.93c3.31,0,6,2.69,6,6v72.04H23V36.93c0-3.31,2.69-6,6-6H99.11 M99.11,27.93H29
			c-4.95,0-9,4.05-9,9v75.04h88.11V36.93C108.11,31.98,104.06,27.93,99.11,27.93L99.11,27.93z"/>
	</g>
	<rect x="15.66" y="50.22" style="fill:#828282;" width="4.41" height="9"/>
	<rect x="108.11" y="50.22" style="fill:#828282;" width="3.32" height="10.36"/>
	<g>
		<path style="fill:#64B5F6;" d="M93.51,85.32H34.77c-3.63,0-6.61-2.97-6.61-6.61V47.43c0-3.63,2.97-6.61,6.61-6.61h58.73
			c3.63,0,6.61,2.97,6.61,6.61v31.28C100.12,82.35,97.14,85.32,93.51,85.32z"/>
	</g>
	<g style="opacity:0.2;">
		<g>
			<path style="fill:#424242;" d="M93.51,43.82c1.99,0,3.61,1.62,3.61,3.61v31.28c0,1.99-1.62,3.61-3.61,3.61H34.77
				c-1.99,0-3.61-1.62-3.61-3.61V47.43c0-1.99,1.62-3.61,3.61-3.61H93.51 M93.51,40.82H34.77c-3.63,0-6.61,2.97-6.61,6.61v31.28
				c0,3.63,2.97,6.61,6.61,6.61h58.73c3.63,0,6.61-2.97,6.61-6.61V47.43C100.12,43.8,97.14,40.82,93.51,40.82L93.51,40.82z"/>
		</g>
	</g>
	<path style="fill:#546E7A;" d="M107,115.97H20.87c-1.66,0-3-1.34-3-3v-2c0-1.66,1.34-3,3-3H107c1.66,0,3,1.34,3,3v2
		C110,114.63,108.66,115.97,107,115.97z"/>
	<path style="fill:#455A64;" d="M78.38,36.03H49.62c-2.09,0-3.8-1.71-3.8-3.8v-8.48c0-2.09,1.71-3.8,3.8-3.8h28.77
		c2.09,0,3.8,1.71,3.8,3.8v8.48C82.18,34.32,80.47,36.03,78.38,36.03z"/>
	<path style="fill:#78909C;" d="M73.2,32.31H54.8c-1.52,0-2.76-1.24-2.76-2.76v-3.22c0-1.52,1.24-2.76,2.76-2.76H73.2
		c1.52,0,2.76,1.24,2.76,2.76v3.22C75.96,31.07,74.71,32.31,73.2,32.31z"/>
	<path style="fill:#78909C;" d="M80.58,101.93H47.42c-0.88,0-1.6-0.72-1.6-1.6v-2.78c0-0.88,0.72-1.6,1.6-1.6h33.16
		c0.88,0,1.6,0.72,1.6,1.6v2.78C82.18,101.21,81.46,101.93,80.58,101.93z"/>
	<path style="fill:#FFEB3B;" d="M41.19,96.98H26.81c-1.04,0-1.9-0.85-1.9-1.9v-4.24c0-1.04,0.85-1.9,1.9-1.9h14.38
		c1.04,0,1.9,0.85,1.9,1.9v4.24C43.09,96.13,42.24,96.98,41.19,96.98z"/>
	<path style="fill:#FFEB3B;" d="M101.19,96.98H86.81c-1.04,0-1.9-0.85-1.9-1.9v-4.24c0-1.04,0.85-1.9,1.9-1.9h14.38
		c1.04,0,1.9,0.85,1.9,1.9v4.24C103.09,96.13,102.24,96.98,101.19,96.98z"/>
	<path style="fill:#424242;" d="M12.21,60.72V48.39c0-0.9,0.73-1.63,1.63-1.63h3.64c0.9,0,1.63,0.73,1.63,1.63v12.34
		c0,0.9-0.73,1.63-1.63,1.63h-3.64C12.95,62.35,12.21,61.62,12.21,60.72z"/>
	<path style="fill:#424242;" d="M109.2,60.72V48.39c0-0.9,0.73-1.63,1.63-1.63h3.64c0.9,0,1.63,0.73,1.63,1.63v12.34
		c0,0.9-0.73,1.63-1.63,1.63h-3.64C109.93,62.35,109.2,61.62,109.2,60.72z"/>
	<g style="opacity:0.3;">
		<path style="fill:#F57F17;" d="M41.09,90.94v4.04H26.91v-4.04H41.09 M41.19,88.94H26.81c-1.04,0-1.9,0.85-1.9,1.9v4.24
			c0,1.04,0.85,1.9,1.9,1.9h14.38c1.04,0,1.9-0.85,1.9-1.9v-4.24C43.09,89.8,42.24,88.94,41.19,88.94L41.19,88.94z"/>
	</g>
	<g style="opacity:0.3;">
		<path style="fill:#F57F17;" d="M101.09,90.94v4.04H86.91v-4.04H101.09 M101.19,88.94H86.81c-1.04,0-1.9,0.85-1.9,1.9v4.24
			c0,1.04,0.85,1.9,1.9,1.9h14.38c1.04,0,1.9-0.85,1.9-1.9v-4.24C103.09,89.8,102.24,88.94,101.19,88.94L101.19,88.94z"/>
	</g>
	<g style="opacity:0.2;">
		<path style="fill:#424242;" d="M107,109.97c0.55,0,1,0.45,1,1v2c0,0.55-0.45,1-1,1H20.87c-0.55,0-1-0.45-1-1v-2c0-0.55,0.45-1,1-1
			H107 M107,107.97H20.87c-1.66,0-3,1.34-3,3v2c0,1.66,1.34,3,3,3H107c1.66,0,3-1.34,3-3v-2C110,109.31,108.66,107.97,107,107.97
			L107,107.97z"/>
	</g>
</g>
<g id="Layer_2">
</g>
</svg>
